X:3040
T:La cucaracha
C:anon.
R:Rumba
F:http://abc.musicaviva.com/tunes/anon/la-cucaracha/la-cucaracha-1.abc
M:C|
L:1/8
K:D
z A,2A, DD FF|"D"A3F- F2 z2|"D"z A2B AG FA|"A7"G3E- E2 z2|
w:In the land of se-\~no-tri-tas,_ sweet lo-li-tas and chi-qui-tas._
"A7"z A,2A, CC EE|"A7"G3E- E2 z2|"A7"z A2B AG FE|"D"D4 z A, A,A,|
w:There they do a dance as neat as_ an-y dance at an-y ball. La cu-ca-
|:"D"D3F zA, A,A,|"D"D3F- F2 z2|"D"z D2D CC B,B,|"A"A,4 z A, A,A,|
w:ra-cha, la cu-ca-ra-cha!_ It's a live-ly lat-in dance. La cu-ca-
w:danced to a thous-and rumb-as,_ old or new they still re-call. La cu-ca-
"A7"C3E z A, A,A,|"A7"C3E- E2 z2|"A7"z A2B AG FE|[1"D"D4 z A, A,A,:|[2"D"D4  z4|]
w:ra-cha, la cu-ca-ra-cha!_ It's the rumb-a of rom-ance. You may have
w:ra-cha, la cu-ca-ra-cha!_ It's the dadd-y of them**** all.
W:
W:In the land of se\~notritas,
W:sweet lolitas and chiquitas.
W:There they do a dance as neat
W:as any dance at any ball.
W:
W:La cucaracha, la cucaracha!
W:It's a lively latin dance.
W:La cucaracha, la cucaracha!
W:It's the rumba of romance.
W:
W:You may have danced to a thousand rumbas,
W:old or new they still recall.
W:La cucaracha, la cucaracha!
W:It's the daddy of them all.
W:
W:
W:  From Musica Viva - http://www.musicaviva.com
W:  the Internet center for free sheet music downloads.

